!!!!SEGMENT: pl-wtm--r-255-m_moniuszko-stanislaw--do-paczka.krn
!!!cenid: 18xx:1660
!!!COM: Moniuszko, Stanisław
!!!COM-rismID: pe30008351
!!!CDT: 1819/05/05-1872/06/04
!!!CNT: Polish
!!!OTL: Do pączka
!!!PDT:
!!!AGN: Secular
!!!SMS-siglum: PL-Wtm
!!!SMS-shelfmark: R 255/M
!!!SMS-shelfwork: W
!!!SMS-variant:
!!!SMS-altvar:
!!!NIFC-rismSourceID: 1001063794
!!!NIFC-islandoraID:
!!!URL-pdf-islandora:
!!!URL-scan:
!!!ONB-nifc:
!!!AIN: 1 forte 1 vox
!!!key:
**kern	**fing	**kern	**fing	**dynam	**kern	**text	**text	**dynam
*part2	*part2	*part2	*part2	*part2	*part1	*part1	*part1	*part1
*staff3	*	*staff2	*	*	*staff1	*staff1	*staff1	*
*Iforte	*	*Iempty	*	*	*Ivox	*	*	*
*I"Fortepian	*	*	*	*	*I"Głos	*	*	*
*I'pf	*	*	*	*	*I'vox humana	*	*	*
*clefF4	*	*clefG2	*	*	*clefG2	*	*	*
*k[b-e-a-d-]	*	*k[b-e-a-d-]	*	*	*k[b-e-a-d-]	*	*	*
*f:	*	*f:	*	*	*f:	*	*	*
*M6/8	*	*M6/8	*	*	*M6/8	*	*	*
=1	=1	=1	=1	=1	=1	=1	=1	=1
!	!	!LO:TX:t=P:problem=mixed beam	!	!	!LO:TX:i:a:t=Andante.	!	!	!
!	!	!	!	!LO:DY:b=2	!LO:TX:i:a:t=Szymona Konopackiego	!	!	!
!	!	!	!	!LO:HP:b=2	!	!	!	!
2.ryy	.	(8F</L	.	p <	2.r	.	.	.
.	.	8A-</	.	.	.	.	.	.
.	.	8c</	.	.	.	.	.	.
.	.	8f\	.	.	.	.	.	.
.	.	8.a-\	.	.	.	.	.	.
.	.	16g\Jk)	.	[	.	.	.	.
=2	=2	=2	=2	=2	=2	=2	=2	=2
*	*	*^	*	*	*	*	*	*
*2\right	*	*	*	*	*	*	*	*	*
!	!	!LO:TX:t=P:problem=2\right&colon; global	!	!	!	!	!	!	!
2.B-\ 2.G\ 2.C\	.	(4.dd-/	4.f\	.	>	4r	.	.	.
.	.	.	.	.	.	8r	.	.	.
.	.	4cc/)	4en\	.	]	4r	.	.	.
.	.	8r	8ryy	.	.	8cc\	Po-	I	.
*	*	*v	*v	*	*	*	*	*	*
=3!|:	=3!|:	=3!|:	=3!|:	=3!|:	=3!|:	=3!|:	=3!|:	=3!|:
!	!	!LO:TX:t=P:problem=mixed beam	!	!	!	!	!	!
[2.F\ [2.C\ [2.FF\	.	(8A-</L	.	p	4ff\	-wo-	ja	.
.	.	8c</	.	.	.	.	.	.
.	.	8f\J)	.	.	8a-/	-li	tak	.
!	!	!LO:TX:t=P:problem=mixed beam	!	!	!	!	!	!
.	.	(8A-</L	.	.	8a-/	pącz-	nieg-	.
.	.	8c</	.	.	8g/	-ku	-dyś	.
.	.	8f\J)	.	.	8a-/	po-	na-	.
=4	=4	=4	=4	=4	=4	=4	=4	=4
!	!	!LO:TX:t=P:problem=mixed beam	!	!	!	!	!	!
2.F\] 2.C\] 2.FF\]	.	(8A-</L	.	.	4.cc\	-wo-	-dob-	.
.	.	8c</	.	.	.	.	.	.
.	.	8f\J)	.	.	.	.	.	.
!	!	!LO:TX:t=P:problem=mixed beam	!	!	!	!	!	!
.	.	(8A-</L	.	.	4f/	-li	-ny	.
.	.	8c</	.	.	.	.	.	.
.	.	8f\J)	.	.	8g/	roz-	nie-	.
!!LO:LB:g=original
=5	=5	=5	=5	=5	=5	=5	=5	=5
!	!	!LO:TX:t=P:problem=mixed beam	!	!	!	!	!	!
(2.F\	.	(8A-</L	.	.	4a-/	-wi-	-zna-	.
.	.	8c</	.	.	.	.	.	.
.	.	8a-\J)	.	.	8cc\	-jaj	-ny	.
!	!	!LO:TX:t=P:problem=mixed beam	!	!	!	!	!	!
.	.	(8A-</L	.	.	8ee-\	two-	so-	.
.	.	8f/	.	.	8.dd-\	-je	-bie	.
.	.	8a-\J)	.	.	.	.	.	.
.	.	.	.	.	16cc\	po-	ni	.
=6	=6	=6	=6	=6	=6	=6	=6	=6
!	!	!LO:TX:t=P:problem=mixed beam	!	!	!	!	!	!
2.En\)	.	(8G</L	.	.	4.cc\	-nę-	świa-	.
.	.	8c</	.	.	.	.	.	.
.	.	8g\J)	.	.	.	.	.	.
!	!	!LO:TX:t=P:problem=mixed beam	!	!	!	!	!	!
.	.	(8G</L	.	.	8cc\	-ty,	-tu	.
.	.	8c</	.	.	8r	.	.	.
.	.	8g\J)	.	.	8cc\	ob-	do	.
=7	=7	=7	=7	=7	=7	=7	=7	=7
!	!	!LO:TX:t=P:problem=mixed beam	!	!	!	!	!	!
[2.E-X\ [2.BB-\ [2.EE-\	.	(8G</L	.	pp	4ee-\	-ra-	pącz-	.
.	.	8B-</	.	.	.	.	.	.
.	.	8g\J)	.	.	8g/	-zem	-ka	.
!	!	!LO:TX:t=P:problem=mixed beam	!	!	!	!	!	!
.	.	.	.	.	8qa-/	.	.	.
.	.	(8G</L	.	.	8g/	jest	by-	.
.	.	8B-</	.	.	8f/	two-	-łem	.
.	.	8e-\J)	.	.	8g/	-jej	po-	.
=8	=8	=8	=8	=8	=8	=8	=8	=8
*	*	*	*	*	*^	*	*	*
!	!	!LO:TX:t=P:problem=mixed beam	!	!	!	!	!	!	!
2.E-\] 2.BB-\] 2.EE-\]	.	(8G</L	.	.	4.b-/	4.ryy	do-	-dob-	.
.	.	8B-</	.	.	.	.	.	.	.
.	.	8g\J)	.	.	.	.	.	.	.
!	!	!LO:TX:t=P:problem=mixed beam	!	!	!	!	!	!	!
.	.	(8G</L	.	.	8e-/	4e-\	-li	-ny,	.
.	.	8B-</	.	.	8e-/	.	kwiat	.	.
.	.	8e-\J)	.	.	8f/	8f\	przy	po-	.
!!LO:LB:g=original
=9	=9	=9	=9	=9	=9	=9	=9	=9	=9
!	!	!LO:TX:t=P:problem=mixed beam	!	!	!	!	!	!	!
(2.E-\	.	(8B-</L	.	.	4g/	4.ryy	to-	-dob-	.
.	.	8e-/	.	.	.	.	.	.	.
.	.	8g\J)	.	.	8b-\	.	-bie	-ny	.
!	!	!LO:TX:t=P:problem=mixed beam	!	!	!	!	!	!	!
.	.	(8An</L	.	.	8cc/	8cc\L	roz-	by-	.
.	.	8c</	.	.	8b-/	8b-\J	.	-łem	.
.	.	8g-X\J)	.	.	8an/	8an\	-wi-	do	.
*	*	*	*	*	*v	*v	*	*	*
=10	=10	=10	=10	=10	=10	=10	=10	=10
*	*	*^	*	*	*	*	*	*
!	!	!LO:TX:t=P:problem=mixed beam	!	!	!	!	!	!	!
4.Dn\)	.	(8B-</L	4.ryy	.	.	4b-\	-nię-	kwia-	.
.	.	8f/	.	.	.	.	.	.	.
.	.	8b-\J)	.	.	.	8b-\	-ty.	-tu.	.
4D-X/ 4DD-X/	.	8B-/	4B-\	.	.	8r	.	.	.
.	.	4f/	.	.	.	8b-/	Cóż	Dzi-	.
8C/ 8CC/	.	.	8c\	.	.	8a-/	on	-siaj	.
*	*	*v	*v	*	*	*	*	*	*
=11	=11	=11	=11	=11	=11	=11	=11	=11
*^	*	*^	*	*	*	*	*	*
4r	2.BB-/ 2.BBB-/	1.5.	(8d-/L	4.d-\	.	.	4g/	zys-	cóż	.
.	.	.	8g/	.	.	.	.	.	.	.
8r	.	.	8f/J	.	.	.	8a-/	-kał	mi	.
!	!	!	!	!	!	!LO:TX:t=cres_:problem=dynamics with extention lines	!	!	!	!
8B-/ 8G/	.	.	8en/L	4ryy	.	<	4b-\	że	po	.
8r	.	.	8g/	.	.	.	.	.	.	.
8r	.	.	8dd-/J)	8ryy	.	.	8dd-\	się	tym	.
=12	=12	=12	=12	=12	=12	=12	=12	=12	=12	=12
2.AA-\	4r	5	(8g/L	4.en\	4	.	4.dd-\	spe-	swie-	.
.	.	.	8b-/	.	5	.	.	.	.	.
*	*	*	*	*	*below	*	*	*	*	*
.	8r	.	8d-/J	.	2	.	.	.	.	.
.	8A-/ 8F/	.	8c/L	4ryy	1	.	8cc\	-szył	-cie,	.
.	8r	.	8f/	.	.	.	8r	.	.	.
.	8r	.	8cc/J)	8ryy	.	.	8cc\	wy-	cóż	.
!!LO:LB:g=original
=13	=13	=13	=13	=13	=13	=13	=13	=13	=13	=13
.	8qDD-/	.	.	.	.	.	.	.	.	.
4r	2.D-\	.	8b-/L	4b-\	.	.	4b-\	-do-	doś-	.
.	.	.	8f/	.	.	.	.	.	.	.
8r	.	.	8a-/J	8a-\	.	.	8cc\	-być	-wiad-	.
8B-/ 8G/	.	.	8g/L	4.g\	.	.	8dd-\	z swe-	-cze-	.
8r	.	.	8b-/	.	.	.	8ee-\	-go	-nie	.
8r	.	.	8ff/J	.	.	.	8ff\	u-	mi	.
*	*	*	*v	*v	*	*	*	*	*	*
=14	=14	=14	=14	=14	=14	=14	=14	=14	=14
!	!LO:N:vis=2	!	!	!	!	!	!	!	!
4r	2.C\	.	8r	.	.	4.ff\	-kry-	na-	.
.	.	.	(8e-/L	.	.	.	.	.	.
8r	.	.	8a-/J	.	.	.	.	.	.
8c/ 8A-/	.	.	8ee-/L	.	.	8ee-\	-cia	-da?	.
8r	.	.	8a-/	.	.	8r	.	.	.
8r	.	.	8e-/J)	.	.	8ee-\	na-	Ot!	.
*v	*v	*	*	*	*	*	*	*	*
=15	=15	=15	=15	=15	=15	=15	=15	=15
(4.F/ 4.FF/	.	(8f/L	.	f	(8dd-\	-dzie-	wzdy-	.
.	.	8a-/	.	.	8cc\)	-ją	.	.
.	.	8dd-/J	.	.	8dd-\	się	-cham	.
4.G/ 4.GG/	.	8e-/L	.	.	4ee-\	nie	przy	.
.	.	8b-/	.	.	.	.	.	.
.	.	8dd-/J	.	.	8b-\	u-	tym	.
=16	=16	=16	=16	=16	=16	=16	=16	=16
!	!	!	!	!LO:HP:t=diminuendo	!	!	!	!
4.E-/ 4.EE-/	.	8g/L	.	>	4.cc\	-cie-	kwie-	.
.	.	8b-/	.	.	.	.	.	.
.	.	8cc/J	.	.	.	.	.	.
4.F/ 4.FF/)	.	8f/L	.	.	4cc\	-szył	-cie	.
.	.	8a-/	.	.	.	.	.	.
.	.	8cc/J)	.	.	8cc\	i	z któ-	.
!!LO:PB:g=original
=17	=17	=17	=17	=17	=17	=17	=17	=17
4.D-/ 4.DD-/	.	8B-/L	.	.	(8b-\	krót-	-re-	.
.	.	8f/	.	.	8a-\)	-ką	.	.
.	.	8b-/J	.	.	8b-\	ma	-go	.
[4AA-/	.	8c/L	.	.	4cc\	chwi-	liść	.
.	.	8f/	.	.	.	.	.	.
16.AA-/LL]	.	8cc/J	.	.	8f/	-lę	o-	.
32BB-/JJk	.	.	.	.	.	.	.	.
=18	=18	=18	=18	=18	=18	=18	=18	=18
2.C\	.	(8c/L	.	.	4.a-/	ży-	-pa-	.
.	.	8f/	.	.	.	.	.	.
.	.	8a-/J	.	.	.	.	.	.
.	.	8c/L	.	.	8g/	-cia	-da	.
.	.	8en/J	.	.	8r	.	.	.
.	.	(8g/	.	.	8r	.	.	.
=19	=19	=19	=19	=19	=19	=19	=19	=19
!	!	!LO:TX:b:t=ralent.	!	!	!	!	!	!
8A-X/L	.	8a-\L	.	.	2.r	.	.	.
8dn/	.	8bn\	.	.	.	.	.	.
8f/J	.	8ddn\J	.	.	.	.	.	.
8Dn/L	.	8ff\L	.	.	.	.	.	.
8F/	.	8aa-\	.	.	.	.	.	.
8Bn/J)	.	8gg\J	.	.	.	.	.	.
=20	=20	=20	=20	=20	=20	=20	=20	=20
*^	*	*	*	*	*	*	*	*
8r	[>2.C\	.	(4.ff\)	.	.	4r	.	.	.
(<8B-/L	.	.	.	.	.	.	.	.	.
8d-/J	.	.	.	.	.	8r	.	.	.
8G/L	.	.	8een\)	.	.	4r	.	.	.
8B-/	.	.	8r	.	.	.	.	.	.
8c/J)	.	.	8r	.	.	8cc\	I	Po-	.
=21:|!	=21:|!	=21:|!	=21:|!	=21:|!	=21:|!	=21:|!	=21:|!	=21:|!	=21:|!
!	!	!	!LO:TX:t=P:problem=mixed beam	!	!LO:DY:t=ppp.	!LO:TX:a:t=Piu lento.	!	!	!
2.ryy	2.C\_ [2.FF\	.	8An</L	.	ppp	4ff\	.	-wo-	.
.	.	.	8c</	.	.	.	.	.	.
.	.	.	8f\J	.	.	8an/	.	-li	.
!	!	!	!LO:TX:t=P:problem=mixed beam	!	!	!	!	!	!
.	.	.	8A</L	.	.	8a/	.	pącz-	.
.	.	.	8c</	.	.	8g/	.	-ku,	.
.	.	.	8f\J	.	.	8a/	.	po-	.
!!LO:LB:g=original
=22	=22	=22	=22	=22	=22	=22	=22	=22	=22
!	!	!	!LO:TX:t=P:problem=mixed beam	!	!	!	!	!	!
2.ryy	2.C\] 2.FF\]	.	8An</L	.	.	4.cc\	wo-	.	.
.	.	.	8c</	.	.	.	.	.	.
.	.	.	8f\J	.	.	.	.	.	.
!	!	!	!LO:TX:t=P:problem=mixed beam	!	!	!	!	!	!
.	.	.	8A</L	.	.	4f/	-li	.	.
.	.	.	8c</	.	.	.	.	.	.
.	.	.	8f\J	.	.	8g/	roz-	.	.
*v	*v	*	*	*	*	*	*	*	*
=23	=23	=23	=23	=23	=23	=23	=23	=23
!	!	!LO:TX:t=P:problem=mixed beam	!	!LO:DY:a	!	!	!	!
2.E-\ 2.C\ 2.FF\	.	8An</L	.	<	4an\	-wi-	.	.
.	.	8c</	.	.	.	.	.	.
.	.	8f\J	.	.	8cc\	-jaj	.	.
!	!	!LO:TX:t=P:problem=mixed beam	!	!	!	!	!	!
.	.	8A</L	.	.	8ee-\	two-	.	.
.	.	8c</	.	.	8dd-\	-je	.	.
.	.	8f\J	.	.	8cc\	po-	.	.
=24	=24	=24	=24	=24	=24	=24	=24	=24
!	!	!LO:TX:t=P:problem=mixed beam	!	!LO:DY:a	!	!	!	!
2.Dn\ 2.FF\	.	8A-X</L	.	[ >	4.cc\	-nę-	.	.
.	.	8c</	.	.	.	.	.	.
.	.	8a-\J	.	.	.	.	.	.
!	!	!LO:TX:t=P:problem=mixed beam	!	!	!	!	!	!
.	.	8A-</L	.	.	8bn\	-ty,	.	.
.	.	8Bn</	.	.	8r	.	.	.
.	.	8f\J	.	.	8b\	ob-	.	.
=25	=25	=25	=25	=25	=25	=25	=25	=25
(4.F/ 4.D-X/	.	(8G/L	.	]	8b-X/	-ra-	.	.
.	.	8B-X/	.	.	8a-/	-zem	.	.
.	.	8f/J	.	.	8b-/	jest	.	.
4.En/ 4.C/)	.	8B-/L	.	.	4cc/	two-	.	.
.	.	8c/	.	.	.	.	.	.
.	.	8g/J)	.	.	8g/	-jej	.	.
!!LO:LB:g=original
=26	=26	=26	=26	=26	=26	=26	=26	=26
4.F\	.	(8A-/L	.	.	4b-/	do-	.	.
.	.	8c/	.	.	.	.	.	.
.	.	8f/J	.	.	8a-/	-li	.	.
4.D-\	.	8A-/L	.	.	8r	.	.	.
.	.	8d-/	.	.	8r	.	.	.
.	.	8f/J	.	.	8a-/	przy	.	.
=27	=27	=27	=27	=27	=27	=27	=27	=27
4.BB-\	.	8B-/L	.	.	8g-X/	to-	.	.
.	.	8d-/	.	.	8f/	-bie	.	.
.	.	8g-X/J	.	.	8g-/	kwiat	.	.
4.C\	.	8A-/L	.	.	4a-/	roz-	.	.
.	.	8e-/	.	.	.	.	.	.
.	.	8g-/J)	.	.	8e-/	-wi-	.	.
=28	=28	=28	=28	=28	=28	=28	=28	=28
*	*	*^	*	*	*	*	*	*
!	!	!	!	!	!	!	!	!	!LO:DY:a
4.Dn\ 4.DDn\	.	(8A-/L	4.A-\	.	<	4g-X/	-nię-	.	>
.	.	8c-X/	.	.	.	.	.	.	.
.	.	8f/J	.	.	.	8f/	-ty	.	]
!	!	!LO:TX:b:t=accelerando.	!	!	!	!	!	!	!
4.En/ 4.EEn/	.	8G/L	4.G\	.	.	8r	.	.	.
.	.	8c-/	.	.	.	8r	.	.	.
.	.	8g/J	.	.	.	8gn/	po-	.	.
=29	=29	=29	=29	=29	=29	=29	=29	=29	=29
!	!	!	!	!	!	!	!	!	!LO:DY:a
4.F/ 4.FF/	.	8A-/L	4.A-\	.	.	4b-/	-wo-	.	>
.	.	8c/	.	.	.	.	.	.	.
.	.	8f/J	.	.	.	8a-/	-li	.	]
4.G/ 4.GG/	.	8d-/L	4.d-\	.	.	8r	.	.	.
.	.	8en/	.	.	.	8r	.	.	.
.	.	8b-/J)	.	.	.	8b-\	po-	.	.
!!LO:LB:g=original
=30	=30	=30	=30	=30	=30	=30	=30	=30	=30
4.A-\ 4.AA-\	.	(8c/L	4.c\	.	.	4.dd-\	-wo-	.	.
.	.	8f/	.	.	.	.	.	.	.
.	.	8cc/J	.	.	.	.	.	.	.
4.An\ 4.AAn\	.	8g-X/L	4.g-\	.	.	8cc\	-li	.	.
.	.	8cc/	.	.	.	8r	.	.	.
.	.	8ee-/J)	.	.	.	8ee-\	roz-	.	.
=31	=31	=31	=31	=31	=31	=31	=31	=31	=31
8B-\ 8BB-\	.	8dd-/ 8f/	2ryy	.	sf	8dd-\	-wi-	.	.
!	!	!LO:TX:b:t=ralent.	!	!	!	!	!	!	!
8r	.	8r	.	.	.	8f/	-jaj	.	.
8r	.	8r	.	.	.	8g/	po-	.	.
[>4.C/	.	8r	.	.	.	(4a-/	-nę-	.	.
.	.	8c/L	4c\	.	.	.	.	.	.
.	.	8en/J 8B-/	.	.	.	8g/)	.	.	.
*	*	*v	*v	*	*	*	*	*	*
=32	=32	=32	=32	=32	=32	=32	=32	=32
!	!	!LO:TX:b:t=a tempo.	!	!	!	!	!	!
4C/] 4FF/	.	(8f/L 8A-/	.	.	4f/	-ty.	.	.
.	.	8a-/	.	.	.	.	.	.
8r	.	8cc/J	.	.	8r	.	.	.
4r	.	8ff\L	.	.	4r	.	.	.
.	.	8.aa-\	.	.	.	.	.	.
8r	.	.	.	.	8r	.	.	.
.	.	16gg\Jk)	.	.	.	.	.	.
=33	=33	=33	=33	=33	=33	=33	=33	=33
4r	.	4ff'\	.	.	2.r	.	.	.
8r	.	8r	.	.	.	.	.	.
4F\	.	4f/ 4c/ 4A-/	.	.	.	.	.	.
8r	.	8r	.	.	.	.	.	.
=34	=34	=34	=34	=34	=34	=34	=34	=34
2.F\ 2.C\ 2.FF\	.	2.f/ 2.c/ 2.A-/	.	>]	2.r	.	.	.
==	==	==	==	==	==	==	==	==
*-	*-	*-	*-	*-	*-	*-	*-	*-
!!!system-decoration: s1,{(s2,s3)}
!!!RDF**kern: > = above
!!!RDF**kern: < = below
!!!RDF**dynam: < = cres
!!!EED: Leszek Kubiak
!!!EEV: 2021-04-16
!!!ENC: Tomasz Grochalski
!!!END: 2021-04-03
